dhis-2/dhis-support/dhis-support-system/src/main/resources/SVGs/star_small_outline.svg

<?xml version="1.0" encoding="UTF-8" standalone="no"?>
<!-- Created with Inkscape (http://www.inkscape.org/) -->
<svg id="svg8" xmlns:rdf="http://www.w3.org/1999/02/22-rdf-syntax-ns#" xmlns="http://www.w3.org/2000/svg" xmlns:osb="http://www.openswatchbook.org/uri/2009/osb" height="48" width="48" version="1.1" xmlns:cc="http://creativecommons.org/ns#" viewBox="0 0 12.7 12.7" xmlns:dc="http://purl.org/dc/elements/1.1/">
 <title id="title4753">UIO-icon</title>
 <metadata id="metadata5">
  <rdf:RDF>
   <cc:Work rdf:about="">
    <dc:format>image/svg+xml</dc:format>
    <dc:type rdf:resource="http://purl.org/dc/dcmitype/StillImage"/>
    <dc:title>UIO-icon</dc:title>
    <dc:creator>
     <cc:Agent>
      <dc:title>Joaquín Urbano</dc:title>
     </cc:Agent>
    </dc:creator>
    <dc:rights>
     <cc:Agent>
      <dc:title>GPL</dc:title>
     </cc:Agent>
    </dc:rights>
   </cc:Work>
  </rdf:RDF>
 </metadata>
 <g id="layer1" transform="translate(0,-284.3)" fill="#333">
  <path id="path931" d="m24.02 12-3.725 7.887-8.295 1.248 5.988 6.158-1.435 8.674 7.426-4.08 7.408 4.113-1.399-8.68 6.012-6.132-8.289-1.286zm-0.003906 1.1719 3.3652 7.2051 7.5566 1.1699-5.4805 5.5898 1.2754 7.9141-6.752-3.75-6.7695 3.7188 1.3086-7.9062-5.459-5.6152 7.5605-1.1367z" fill-rule="evenodd" transform="matrix(.26458 0 0 .26458 0 284.3)"/>
 </g>
</svg>

<svg width="48" height="48" viewBox="0 0 48 48" fill="none" xmlns="http://www.w3.org/2000/svg">
<path fill-rule="evenodd" clip-rule="evenodd" d="M24.0196 12L20.2947 19.8869L11.9998 21.1349L17.9877 27.2928L16.5527 35.9667L23.9786 31.8867L31.3865 35.9997L29.9875 27.3198L35.9995 21.1879L27.7106 19.9019L24.0196 12ZM24.0157 13.1719L27.3809 20.3769L34.9374 21.5468L29.4569 27.1365L30.7323 35.0505L23.9804 31.3006L17.211 35.0193L18.5196 27.1132L13.0606 21.4981L20.621 20.3614L24.0157 13.1719Z" fill="#333333"/>
</svg>
